assets/svg/calendar-time.svg

<svg width="50px" height="50px" viewBox="0 0 50 50" version="1.1" xmlns="http://www.w3.org/2000/svg" xmlns:xlink="http://www.w3.org/1999/xlink">
    <defs>
        <path d="M46.8092338,35.8226698 L46.8092338,35.6518592 C46.8092338,35.0824904 46.4152702,34.5700584 45.8523879,34.5131215 L38.0287919,33.3743839 L35.2144703,27.7378128 C35.0456416,27.3392546 34.651678,27.1115972 34.2013181,27.1115972 C34.0325795,27.1115972 33.8636608,27.168444 33.694742,27.2253809 C33.4133909,27.3392546 33.2445623,27.5670022 33.1319498,27.8516866 C33.0194274,28.136371 33.0756435,28.4210554 33.188256,28.7626767 L36.5089735,35.4810485 L45.5146404,36.7905067 L45.6835592,36.7905067 C46.2463514,36.7905067 46.7529275,36.3919485 46.8092338,35.8226698 M49.999591,34.2972659 C49.999591,41.297169 44.2715786,47.0450013 37.2520359,47.0450013 C30.232403,47.0450013 24.5044807,41.3540158 24.5044807,34.2972659 C24.5044807,27.2404259 30.232403,21.5495305 37.2520359,21.5495305 C44.3277047,21.5495305 50.0557171,27.2404259 49.999591,34.2972659 M37.2969908,19.5046677 C40.1756366,19.5046677 42.8624809,20.311784 45.1387849,21.7105214 L45.1387849,6.51386949 C45.1387849,5.26738421 44.1283355,4.25693474 42.8818502,4.25693474 L40.6249155,4.25693474 C39.3836554,4.25693474 38.3679807,5.27260943 38.3679807,6.51386949 L38.3679807,13.273953 C38.3679807,14.5263842 37.3527565,15.5416985 36.1003253,15.5416985 L31.5971765,15.5416985 C30.3506912,15.5416985 29.3402417,14.531159 29.3402417,13.2846737 L29.3402417,6.51386949 C29.3402417,4.25693474 28.2117744,4.25693474 28.2117744,4.25693474 C27.083307,4.25693474 27.083307,5.83648276 27.083307,6.51386949 L27.083307,13.2846737 C27.083307,14.531159 26.0728575,15.5416985 24.8263723,15.5416985 L20.3135839,15.5416985 C19.0664679,15.5416985 18.0554779,14.5317896 18.0554779,13.2846737 L18.0554779,6.51386949 C18.0554779,5.83648276 17.6044874,4.25693474 16.9271007,4.25693474 C16.2497139,4.25693474 15.7986333,4.85233957 15.7986333,6.51386949 L15.7986333,13.2846737 C15.7986333,14.531159 14.7880937,15.5416985 13.5416085,15.5416985 L9.02773897,15.5416985 C7.78134379,15.5416985 6.77080423,14.531159 6.77080423,13.2846737 L6.77080423,6.51386949 C6.77080423,4.25693474 5.1913463,4.25693474 4.51386949,4.25693474 L2.25693474,4.25693474 C1.01044947,4.25693474 0,5.26738421 0,6.51386949 L0,38.1109559 C0,40.6039264 2.02098903,42.6249155 4.51386949,42.6249155 L24.9631289,42.6249155 C23.3662836,40.2615844 22.4324106,37.4131187 22.4324106,34.3423109 C22.4324106,26.1286252 29.1116834,19.5046677 37.2969908,19.5046677 M11.2846737,13.2846737 C12.5163842,13.2846737 13.488095,12.2594495 13.488095,11.027739 L13.488095,4.25693474 C13.488095,3.02522423 12.4896275,2 11.257917,2 C10.0262065,2 9.02773897,3.02522423 9.02773897,4.25693474 L9.02773897,11.027739 C9.02773897,12.2594495 10.0530533,13.2846737 11.2846737,13.2846737 M33.8541112,13.2846737 C35.0858217,13.2846737 36.111046,12.2594495 36.111046,11.027739 L36.0575325,4.25693474 C36.0575325,3.02522423 35.059065,2 33.8273545,2 C32.595644,2 31.5971765,3.02522423 31.5971765,4.25693474 L31.5971765,11.027739 C31.5971765,12.2594495 32.6224007,13.2846737 33.8541112,13.2846737 M20.3125028,11.027739 L20.3125028,4.25693474 C20.3125028,3.02522423 21.337727,2 22.5694375,2 C23.8010579,2 24.8263723,3.02522423 24.8263723,4.25693474 L24.7996155,11.027739 C24.7996155,12.2594495 23.8010579,13.2846737 22.5694375,13.2846737 C21.337727,13.2846737 20.3125028,12.2594495 20.3125028,11.027739" id="path-1"></path>
    </defs>
</svg>

<svg width="50" height="50" xmlns="http://www.w3.org/2000/svg"><defs><path d="M46.81 35.823v-.171c0-.57-.395-1.082-.958-1.139l-7.823-1.139-2.815-5.636c-.168-.399-.562-.626-1.013-.626-.168 0-.337.056-.506.113-.282.114-.45.342-.563.627-.113.284-.056.57.056.91l3.321 6.719 9.006 1.31h.169c.562 0 1.069-.4 1.125-.968M50 34.297c0 7-5.727 12.748-12.747 12.748s-12.748-5.691-12.748-12.748c0-7.057 5.728-12.747 12.748-12.747 7.076 0 12.804 5.69 12.748 12.747M37.297 19.505c2.879 0 5.565.807 7.842 2.206V6.514a2.257 2.257 0 00-2.257-2.257h-2.257a2.264 2.264 0 00-2.257 2.257v6.76a2.268 2.268 0 01-2.268 2.268h-4.503a2.257 2.257 0 01-2.257-2.257V6.514c0-2.257-1.128-2.257-1.128-2.257-1.129 0-1.129 1.58-1.129 2.257v6.77a2.257 2.257 0 01-2.257 2.258h-4.512a2.257 2.257 0 01-2.259-2.257V6.514c0-.678-.45-2.257-1.128-2.257-.677 0-1.128.595-1.128 2.257v6.77a2.257 2.257 0 01-2.257 2.258H9.028a2.257 2.257 0 01-2.257-2.257V6.514c0-2.257-1.58-2.257-2.257-2.257H2.257A2.257 2.257 0 000 6.514V38.11a4.514 4.514 0 004.514 4.514h20.45a14.74 14.74 0 01-2.532-8.283c0-8.213 6.68-14.837 14.865-14.837m-26.012-6.22c1.231 0 2.203-1.026 2.203-2.257V4.257c0-1.232-.998-2.257-2.23-2.257s-2.23 1.025-2.23 2.257v6.77a2.276 2.276 0 002.257 2.258m22.57 0a2.276 2.276 0 002.256-2.257l-.053-6.771c0-1.232-.999-2.257-2.23-2.257-1.232 0-2.23 1.025-2.23 2.257v6.77a2.276 2.276 0 002.256 2.258m-13.541-2.257V4.257A2.276 2.276 0 0122.569 2a2.276 2.276 0 012.257 2.257l-.026 6.77c0 1.232-.999 2.258-2.23 2.258a2.276 2.276 0 01-2.257-2.257" id="path-1"/></defs></svg>
